X:1
T:We’ll Go Out and Take the Land
T:We’ll Go Out and Take the Land
T:J. B. Youngblood
T:J. B. Youngblood, 1900
T:Public Domain Courtesy of the Cyber Hymnal™
T:Public Domain Courtesy of the Cyber Hymnal™
C:J. B. Youngblood
Z:Public Domain
Z:Courtesy of the Cyber Hymnal™
%%score ( 1 2 ) 3
L:1/8
Q:1/4=90
M:2/4
K:Eb
V:1 treble 
V:2 treble 
V:3 bass 
V:1
 E | [EG][EB] [EB]>[Ec] | [EB] [EG]2 [EG] | [EA]>[EG] [EA][EB] | [Ec]3 [Ac] | [Ac][GB] [GB]>[Ac] | %6
w: 1.~Come,|all ye Christ- ian|sol- diers, And|form a might- y|band, Put|on the Gos- pel|
w: 2.~The|har- vest now is|rea- dy, And|there is much to|do; Our|num- bers seem “so|
w: 3.~Yes,|brave- ly go ye|for- ward, It|is the Lord’s com-|mand: “Go|out and teach all|
 [GB] [EG]2 [EG] | [EG][CF] [CF][EG] | [DF]3 E | [EG][EB] [EB]>[Ec] | [EB] [EG]2 [EG] | %11
w: ar- mor, Go|forth and take the|land; Do|bat- tle for the|Mas- ter, His|
w: ma- ny,” Still|“la- bor- ers are|few”; The|souls of men are|dy- ing With-|
w: na- tions” Of|ev- ery name and|land; Go|tell them of the|Sav- ior Who|
 [EA]>[EA] [EA][EB] | [Ec]3 [Gd] | [Ae]>[Gd] [Ae][Ac] | [GB] [Ge]2 E | [EG][FA] [EG][DF] | E3 || %17
w: en- e- mies pur-|sue; With|Je- sus for your|cap- tain, Be|strong, and brave, and|true.|
w: out a hope of|life; Then|go ye for- ward,|brave- ly Con-|tend- ing in the|strife.|
w: died to set us|free, And|of- fers full sal-|va- tion To|sin- ners such as|we.|
"^Refrain" [EGB]/[EGB]/ | [Ge]>[Ge] [Ae]>[Ae] | [Ge]3 [GB] | [Ac]>[Ae] [Ae]>[Ac] | [GB]3 [GB] | %22
w: |||||
w: We’ll go|out and take the|land, Be-|hind His ban- ner|grand; With|
w: |||||
 [Ac][GB] [Ae][Ac] | [GB] [Ge]2 E/E/ | [EG]!fermata![EB] [DF][DF] | E3 |] %26
w: ||||
w: Je- sus as our|cap- tain, We’ll go|out and take the|land.|
w: ||||
V:2
 E | x4 | x4 | x4 | x4 | x4 | x4 | x4 | x3 E | x4 | x4 | x4 | x4 | x4 | x3 E | x4 | E3 || x | x4 | %19
 x4 | x4 | x4 | x4 | x3 E/E/ | x4 | E3 |] %26
V:3
 [E,G,] | [E,B,][E,G,] [E,G,]>[E,A,] | [E,G,] [E,B,]2 [E,B,] | [A,,C]>[A,,C] [A,,C][A,,G,] | %4
 [A,,E,A,]3 [E,E] | [E,E][E,E] [E,E]>[E,E] | [E,E] [E,B,]2 [E,B,] | [F,B,][F,=A,] [F,A,][F,A,] | %8
 [B,,B,]3 [E,G,] | [E,B,][E,G,] [E,G,]>[E,A,] | [E,G,] [E,B,]2 [D,B,] | %11
 [A,,C]>[A,,C] [A,,C][A,,C] | [A,,E,E]3 [E,B,] | [A,C]>[A,B,] [A,C][A,E] | [E,E] [E,B,]2 [E,G,] | %15
 [B,,B,][B,,B,] [B,,B,][B,,B,] | [E,G,]3 || [E,G,E]/[E,G,E]/ | [E,B,]>[E,B,] [E,C]>[E,C] | %19
 [E,B,]3 [E,E] | [A,E]>[A,C] [A,C]>[A,E] | [E,E]3 [E,E] | [E,E][E,E] [E,C][E,E] | %23
 [E,E] [E,B,]2 [E,G,]/[E,A,]/ | [B,,B,]!fermata![B,,G,] [B,,A,][B,,A,] | [E,G,]3 |] %26

